X: 8
T:Mantell Siani
T:Jenny's Mantle
M:2/4
L:1/8
Q:300
C:Trad
S:51 Welsh Airs
R:Polka
A:Wales
H:From a facsimile c.1840: A Choice Collection of Fifty-One Welsh Airs
H:adapted for The Harp, Piano-Forte, Harpsichord,
H:Violin, or Flute by Edward Jones
H:"Harper to His Late Majesty King George IV, when
H:Prince of Wales".
Z:brian_martin12345@yahoo.com
K:G
G/A/|B2B>c|A2A>B|G2G/B/A/G/|F>ED2|E2F2|GABG|cB {AB}A>G|G3:||!
z|(d>e)dc|Bc.d2|A>BAG|FG.A2|B^c.d2|^cd.e2|d<f A<^c|d4|!
(d>edc|BcdB|cE)D2|E2F2|GABG|cB {AB}A>G|G3:||
